public/images/axe.svg

<svg xmlns:xlink="http://www.w3.org/1999/xlink" xmlns="http://www.w3.org/2000/svg" width="18" height="18" viewBox="0 0 18 18" fill="none">
<g clip-path="url(#clip0)">
<path d="M16.2977 7.24096H11.1011C10.9567 7.24096 10.8397 7.35803 10.8397 7.50242C10.8397 7.6468 10.9567 7.76387 11.1011 7.76387H16.2976C16.6054 7.76387 16.8558 8.01433 16.8558 8.32208C16.8558 8.62991 16.6054 8.8803 16.2976 8.8803H6.30953V7.76384H10.0395C10.1839 7.76384 10.3009 7.64677 10.3009 7.50238C10.3009 7.35799 10.1839 7.24092 10.0395 7.24092H6.30953V7.01684C6.30953 6.87245 6.19249 6.75538 6.04807 6.75538H4.36275C4.35969 6.75538 4.35034 6.75538 4.34218 6.74596C4.33666 6.73956 4.33448 6.732 4.33571 6.72357C4.68766 4.33452 5.84089 2.12998 7.58296 0.516062C7.67595 0.429929 7.69373 0.289585 7.62525 0.182921C7.5568 0.076292 7.42166 0.0341397 7.30473 0.0829014C5.39546 0.878628 3.82588 2.36778 2.88517 4.27602C2.82129 4.40554 2.87455 4.5623 3.00403 4.62618C3.13362 4.69006 3.29031 4.63676 3.35412 4.50728C4.00243 3.1923 4.96716 2.08934 6.14159 1.2998C4.91927 2.82502 4.10868 4.67659 3.81836 6.64738C3.79501 6.80597 3.84166 6.96642 3.94639 7.08771C4.05098 7.20883 4.20272 7.2783 4.36271 7.2783H5.78658V7.50238V9.14172V9.3658H4.36271C4.20272 9.3658 4.05098 9.43527 3.94639 9.55639C3.84166 9.67767 3.79501 9.83816 3.81836 9.99675C4.10878 11.9681 4.91977 13.8203 6.14275 15.3457C5.25857 14.752 4.49205 13.9788 3.88473 13.0609C3.07853 11.8425 2.60406 10.4396 2.49616 8.97001C2.49247 8.91988 2.48927 8.8695 2.48643 8.81905C2.48625 8.81582 2.486 8.81262 2.48579 8.80935C2.47989 8.70212 2.47591 8.59437 2.47391 8.4869C2.47387 8.48609 2.47388 8.48524 2.47384 8.48447C2.47282 8.43023 2.47233 8.37605 2.47233 8.32201C2.47233 8.26369 2.47303 8.20544 2.47419 8.14725C2.47468 8.12292 2.47553 8.0986 2.47623 8.07427C2.47718 8.04091 2.47813 8.00758 2.47939 7.97428C2.48055 7.94479 2.482 7.91536 2.48347 7.8859C2.48488 7.85778 2.48629 7.82965 2.48794 7.80153C2.4898 7.7701 2.4918 7.73874 2.49402 7.70741C2.54921 6.91306 2.71132 6.13663 2.97865 5.39209C3.02745 5.25621 2.95685 5.10648 2.82097 5.05769C2.68506 5.00889 2.53533 5.07948 2.48653 5.2154C2.23436 5.91768 2.0706 6.64647 1.99614 7.39129H1.79205C1.27884 7.39129 0.861328 7.80884 0.861328 8.32205C0.861328 8.83526 1.27888 9.25278 1.79209 9.25278H1.99614C2.14312 10.7227 2.6376 12.1237 3.44869 13.3495C4.40778 14.7989 5.74119 15.9095 7.30477 16.5612C7.33746 16.5748 7.37156 16.5813 7.40524 16.5813C7.49204 16.5813 7.576 16.5379 7.62532 16.4611C7.6938 16.3545 7.67602 16.2142 7.58303 16.128C5.84093 14.514 4.68773 12.3095 4.33578 9.9205C4.33455 9.91206 4.33673 9.90454 4.34225 9.8981C4.35037 9.88865 4.35976 9.88865 4.36282 9.88865H6.04814C6.19256 9.88865 6.3096 9.77158 6.3096 9.62719V9.4031H16.2977C16.8938 9.4031 17.3788 8.91809 17.3788 8.32198C17.3788 7.72587 16.8938 7.24096 16.2977 7.24096ZM1.79209 8.72993C1.5672 8.72993 1.38424 8.54698 1.38424 8.32205C1.38424 8.09715 1.5672 7.9142 1.79209 7.9142H1.95838C1.95251 8.04973 1.94948 8.18568 1.94948 8.32205C1.94948 8.38568 1.95029 8.44917 1.95159 8.51267C1.95195 8.52909 1.95251 8.54547 1.95293 8.56189C1.95416 8.61016 1.95567 8.65839 1.95768 8.70655C1.95799 8.71432 1.9581 8.72213 1.95845 8.7299H1.79209V8.72993Z" fill="black"/>
<path d="M7.70605 17.4618L3.63566 14.6041C3.54911 14.5434 3.4345 14.5407 3.3452 14.5974L2.41261 15.1901C2.29073 15.2675 2.25473 15.4291 2.33214 15.551C2.40962 15.6729 2.57117 15.7089 2.69305 15.6314L3.4782 15.1324L6.72836 17.4143H0.737137L1.31155 16.5094L1.79787 16.2003C1.91976 16.1228 1.95576 15.9613 1.87834 15.8394C1.80086 15.7175 1.63928 15.6815 1.51743 15.7589L0.981859 16.0993C0.94941 16.1199 0.921918 16.1474 0.901352 16.1798L0.0407266 17.5357C-0.0103906 17.6162 -0.013625 17.7182 0.0323594 17.8017C0.0782735 17.8853 0.166129 17.9372 0.261473 17.9372H7.5558C7.66984 17.9372 7.77074 17.8633 7.80509 17.7546C7.83951 17.6458 7.79936 17.5273 7.70605 17.4618Z" fill="black"/>
<path d="M17.9868 17.5946L17.206 15.1939C17.1995 15.1741 17.1907 15.155 17.1797 15.1373L16.1547 13.4808C16.0787 13.358 15.9176 13.32 15.7948 13.396C15.672 13.472 15.6341 13.6331 15.71 13.7559L16.7185 15.3856L17.3782 17.4141H8.56509V16.0945C8.56509 16.0672 8.56083 16.0402 8.5525 16.0143L7.85258 13.8414L9.29208 12.368L12.691 11.242L15.1882 12.8652C15.3093 12.9439 15.4713 12.9095 15.5499 12.7885C15.6286 12.6674 15.5943 12.5055 15.4732 12.4268L12.8706 10.7351C12.804 10.6918 12.7213 10.6812 12.6459 10.7061L9.06733 11.8917C9.02767 11.9049 8.99171 11.9273 8.96253 11.9572L7.3684 13.5888C7.30062 13.6582 7.27679 13.7593 7.30656 13.8517L8.04228 16.1356V17.6755C8.04228 17.8199 8.15931 17.937 8.30374 17.937H17.7382C17.8219 17.937 17.9006 17.8969 17.9498 17.8292C17.9988 17.7614 18.0127 17.6742 17.9868 17.5946Z" fill="black"/>
<path d="M8.59417 11.2016L7.77165 10.0024C7.73062 9.94261 7.66657 9.90257 7.59485 9.89181C7.52295 9.88105 7.45011 9.90056 7.39337 9.94571L5.88492 11.1448C5.7888 11.2212 5.75878 11.3542 5.81281 11.4645L6.56779 13.0062C6.60471 13.0816 6.67555 13.1347 6.75824 13.1489C6.773 13.1514 6.78787 13.1527 6.80257 13.1527C6.87035 13.1527 6.93616 13.1263 6.98542 13.0781L8.5614 11.5364C8.65221 11.4475 8.66599 11.3063 8.59417 11.2016ZM6.87833 12.4514L6.37489 11.4233L7.49915 10.5296L8.03873 11.3162L6.87833 12.4514Z" fill="black"/>
<path d="M13.0798 4.0736L12.6802 2.77883C12.6582 2.70768 12.607 2.64921 12.5392 2.61824C12.4715 2.5872 12.3938 2.58656 12.3256 2.61641L10.0772 3.60026C10.0094 3.62993 9.95734 3.68688 9.934 3.75702L9.36503 5.46234C9.33838 5.54208 9.35177 5.62976 9.40089 5.69793C9.45 5.76616 9.52896 5.80656 9.61302 5.80656H11.7245C11.8043 5.80656 11.8798 5.7701 11.9294 5.70752L13.0348 4.31312C13.0884 4.24555 13.1052 4.15597 13.0798 4.0736ZM11.5981 5.28364H9.97587L10.3932 4.03275L12.2669 3.21291L12.5395 4.09621L11.5981 5.28364Z" fill="black"/>
</g>
<defs>
<clipPath id="clip0">
<rect width="18" height="18" fill="white"/>
</clipPath>
</defs>
</svg>

<svg xmlns="http://www.w3.org/2000/svg" width="18" height="18" fill="none"><g fill="#000" clip-path="url(#a)"><path d="M16.298 7.241H11.1a.261.261 0 0 0 0 .523h5.197a.559.559 0 0 1 0 1.116H6.31V7.764h3.73a.261.261 0 0 0 0-.523H6.31v-.224a.26.26 0 0 0-.262-.262H4.363c-.003 0-.013 0-.02-.009a.03.03 0 0 1-.007-.022A10.58 10.58 0 0 1 7.583.516a.261.261 0 0 0-.278-.433c-1.91.796-3.48 2.285-4.42 4.193a.262.262 0 0 0 .47.231A8.25 8.25 0 0 1 6.141 1.3a11.17 11.17 0 0 0-2.324 5.347.55.55 0 0 0 .545.631h1.424v2.088H4.363a.55.55 0 0 0-.545.63 11.17 11.17 0 0 0 2.325 5.35 8.2 8.2 0 0 1-2.258-2.285 8.5 8.5 0 0 1-1.399-4.242v-.01a9 9 0 0 1-.012-.322v-.003a9 9 0 0 1 0-.337l.002-.073.007-.188.005-.084.006-.095c.055-.794.217-1.57.485-2.315a.261.261 0 1 0-.492-.177 9 9 0 0 0-.49 2.176h-.205a.932.932 0 0 0 0 1.862h.204A9.03 9.03 0 0 0 3.45 13.35a8.6 8.6 0 0 0 3.856 3.211.261.261 0 0 0 .278-.433 10.58 10.58 0 0 1-3.247-6.207.03.03 0 0 1 .006-.023c.008-.01.018-.01.02-.01h1.686a.26.26 0 0 0 .262-.26v-.225h9.988c.596 0 1.08-.485 1.08-1.081s-.484-1.081-1.08-1.081M1.792 8.73a.408.408 0 0 1 0-.816h.166a9 9 0 0 0-.006.599v.049l.006.145v.023zM7.706 17.462l-4.07-2.858a.26.26 0 0 0-.29-.007l-.933.593a.261.261 0 1 0 .28.441l.785-.499 3.25 2.282H.738l.574-.905.486-.309a.261.261 0 0 0-.28-.441l-.536.34a.3.3 0 0 0-.08.08L.04 17.537a.261.261 0 0 0 .22.401h7.295a.261.261 0 0 0 .15-.475"/><path d="m17.987 17.595-.781-2.401a.3.3 0 0 0-.026-.057l-1.025-1.656a.261.261 0 1 0-.445.275l1.008 1.63.66 2.028H8.565v-1.32a.3.3 0 0 0-.012-.08l-.7-2.173 1.44-1.473 3.398-1.126 2.497 1.623a.261.261 0 0 0 .285-.438l-2.602-1.692a.26.26 0 0 0-.225-.029l-3.579 1.186a.3.3 0 0 0-.104.065L7.368 13.59a.26.26 0 0 0-.061.263l.735 2.284v1.54c0 .144.117.261.262.261h9.434a.262.262 0 0 0 .249-.342M8.594 11.202l-.822-1.2a.26.26 0 0 0-.379-.056l-1.508 1.199a.26.26 0 0 0-.072.32l.755 1.541a.26.26 0 0 0 .417.072l1.576-1.542a.26.26 0 0 0 .033-.334m-1.716 1.25-.503-1.029 1.124-.893.54.786zM13.08 4.074l-.4-1.295a.26.26 0 0 0-.354-.163l-2.249.984a.26.26 0 0 0-.143.157l-.569 1.705a.26.26 0 0 0 .248.345h2.112c.08 0 .155-.037.204-.1l1.106-1.394a.26.26 0 0 0 .045-.24m-1.482 1.21H9.976l.417-1.251 1.874-.82.273.883z"/></g><defs><clipPath id="a"><path fill="#fff" d="M0 0h18v18H0z"/></clipPath></defs></svg>
